X: 34735
T: Road To Lisdoonvarna, The
R: reel
M: 4/4
K: Dmixolydian
d>e fd|cA A>c|BG GA/B/|cA A2|d>e fd|cA Ac|BG AF|D2 D2:|
|:A>B AG|AB c2|G>A GF|EF GE|A>B AG|AB cA|BG AF|D2 D2:|
defd cAAc|BGGB cAAc|defd cAAc|BGAF D2D2:|
|:ABAG ABcA|GAGF EFGE|ABAG ABcA|BGAF D2D2:|

